public/assets/techs/firebase.svg

<svg width="20" height="20" viewBox="0 0 20 20" fill="none" xmlns="http://www.w3.org/2000/svg">
<g clip-path="url(#clip0_310_86)">
<path d="M2.91751 16.3633C2.85678 16.3634 2.79677 16.3501 2.74169 16.3245C2.68662 16.2989 2.6378 16.2616 2.59866 16.2152C2.55953 16.1687 2.53101 16.1143 2.51512 16.0557C2.49923 15.9971 2.49635 15.9357 2.50668 15.8758L5.14418 0.69417C5.17176 0.524794 5.25142 0.368218 5.37209 0.246203C5.49276 0.124188 5.64845 0.0427951 5.81751 0.013337C5.98585 -0.0191559 6.16014 0.00215348 6.31569 0.0742454C6.47124 0.146337 6.60016 0.265555 6.68418 0.415004L9.05251 4.49834C9.10798 4.59404 9.12317 4.70785 9.09473 4.81475C9.06628 4.92164 8.99654 5.01286 8.90084 5.06834C8.80514 5.12381 8.69133 5.139 8.58443 5.11055C8.47754 5.08211 8.38632 5.01237 8.33084 4.91667L5.96334 0.83417L3.32668 16.0175C3.31002 16.1141 3.25987 16.2017 3.18504 16.2649C3.11021 16.3281 3.01549 16.363 2.91751 16.3633Z" fill="#EEEEEE"/>
<path d="M10 20.0017C9.6125 20.0017 9.225 19.9042 8.8725 19.7092L2.715 16.315C2.6587 16.2836 2.61041 16.2396 2.5739 16.1865C2.53739 16.1334 2.51366 16.0726 2.50454 16.0088C2.49542 15.9449 2.50118 15.8799 2.52135 15.8187C2.54152 15.7574 2.57557 15.7017 2.62083 15.6558L14.1375 4.09916C14.2454 3.99144 14.3807 3.9153 14.5288 3.87902C14.6769 3.84274 14.832 3.84768 14.9775 3.89333C15.275 3.98833 15.4942 4.24 15.5483 4.55L17.495 15.8792C17.5095 15.9645 17.4971 16.0522 17.4595 16.1302C17.4218 16.2082 17.3609 16.2725 17.285 16.3142L11.1275 19.7092C10.7825 19.9007 10.3946 20.0013 10 20.0017V20.0017ZM3.60167 15.8517L9.275 18.9792C9.72917 19.23 10.2708 19.2292 10.725 18.9792L16.6225 15.7275L14.7258 4.69083L14.725 4.68666L3.60167 15.8517Z" fill="#EEEEEE"/>
<path d="M2.91666 16.3633C2.8452 16.3636 2.77488 16.3454 2.7125 16.3105C2.65011 16.2757 2.59776 16.2253 2.56049 16.1644C2.52322 16.1034 2.50229 16.0339 2.49972 15.9624C2.49715 15.891 2.51303 15.8202 2.54583 15.7567L9.27749 2.65833C9.34577 2.52439 9.4491 2.41149 9.57648 2.33166C9.70387 2.25182 9.85052 2.20805 10.0008 2.20499C10.1517 2.19956 10.3011 2.23639 10.4321 2.31134C10.5632 2.38629 10.6707 2.49637 10.7425 2.62916L12.7717 6.22083C12.82 6.3166 12.8295 6.42728 12.7984 6.52993C12.7673 6.63257 12.6979 6.7193 12.6045 6.77214C12.5112 6.82497 12.4011 6.83985 12.2971 6.8137C12.193 6.78754 12.1031 6.72236 12.0458 6.63166L10.0167 3.03999L3.28666 16.1367C3.25191 16.2049 3.19895 16.2622 3.13364 16.3022C3.06834 16.3422 2.99324 16.3634 2.91666 16.3633V16.3633Z" fill="#EEEEEE"/>
</g>
<defs>
<clipPath id="clip0_310_86">
<rect width="20" height="20" fill="white"/>
</clipPath>
</defs>
</svg>

<svg xmlns="http://www.w3.org/2000/svg" width="20" height="20" fill="none" xmlns:v="https://vecta.io/nano"><g clip-path="url(#A)" fill="#f2c129"><path d="M2.917 16.363c-.061 0-.121-.013-.176-.039s-.104-.063-.143-.109-.068-.101-.084-.159-.019-.12-.008-.18L5.144.694c.028-.169.107-.326.228-.448s.276-.203.445-.233.343-.011.498.061.284.191.368.341l2.368 4.083c.055.096.071.21.042.316s-.098.198-.194.254-.21.071-.316.042-.198-.098-.254-.194L5.963.834 3.327 16.017c-.017.097-.067.184-.142.247s-.17.098-.268.098z"/><path d="M10 20.002c-.387 0-.775-.098-1.127-.293l-6.158-3.394c-.056-.031-.105-.075-.141-.129a.42.42 0 0 1-.053-.368.42.42 0 0 1 .099-.163L14.138 4.099c.108-.108.243-.184.391-.22s.303-.031.449.014a.84.84 0 0 1 .571.657l1.947 11.329c.014.085.002.173-.036.251s-.099.142-.174.184l-6.158 3.395a2.33 2.33 0 0 1-1.127.293zm-6.398-4.15l5.673 3.127c.454.251.996.25 1.45 0l5.897-3.252-1.897-11.037-.001-.004L3.602 15.852z"/><path d="M2.917 16.363c-.071 0-.142-.018-.204-.053s-.115-.085-.152-.146-.058-.131-.061-.202.013-.142.046-.206L9.277 2.658a.83.83 0 0 1 .723-.453.81.81 0 0 1 .742.424l2.029 3.592c.048.096.058.206.027.309s-.101.189-.194.242-.203.068-.307.042-.194-.091-.251-.182L10.017 3.04l-6.73 13.097c-.035.068-.088.125-.153.165s-.14.061-.217.061z"/></g><defs><clipPath id="A"><path fill="#fff" d="M0 0h20v20H0z"/></clipPath></defs></svg>
